X: 87
T:Bailey's Breakdown
R:Reel
M:4/4
L:1/8
K:D
AD|FADF ABAF|GBDG B2 AG|FAde f2 ef|gfed cBAG|
FADF ABAF|GBDG B2 AG|FAdf edce|d2 dffd f2d2:|
fg|afdf ecAc|dcdB AFDF|GABG FAdf|edcB A2 fg|
afdf ecAc|dcdB AFDF|GAdf edce|d2 fdfd f2d2:|
